img/gp-icon.svg

<svg viewBox="0 0 42 42" fill="none" xmlns="http://www.w3.org/2000/svg">
<rect x="0.35" y="0.35" width="41.3" height="41.3" rx="7.65" stroke="#292929" stroke-width="0.7"/>
<path d="M32.2501 20.0653L27.3284 17.218C27.302 17.2049 27.2746 17.1952 27.2465 17.1883L22.4881 14.4521L11.9532 9.04234C11.9134 9.0264 11.8735 9.01529 11.8342 9.00873C11.7915 8.99912 11.747 8.99748 11.7018 9.00479C11.6451 9.01131 11.5916 9.02888 11.5434 9.05734C11.41 9.1141 11.3431 9.26104 11.3431 9.40836V32.5932C11.3431 32.7559 11.4244 32.878 11.5465 32.9593C11.5871 33 11.6685 33 11.7498 33C11.8312 33 11.8718 33 11.9532 32.9593L22.4881 27.102L27.1184 24.4172C27.1207 24.4172 27.1227 24.4175 27.125 24.4175C27.2064 24.4175 27.2471 24.3768 27.3284 24.2955C27.3639 24.2836 27.3954 24.2643 27.4231 24.2407L32.2501 21.4482C32.4942 21.3262 32.6569 21.0414 32.6569 20.7567C32.6569 20.4719 32.4942 20.228 32.2501 20.0653ZM12.1566 10.3439L23.3365 20.7921L12.1566 31.5994V10.3439ZM26.4742 17.6655L25.0552 19.1074L23.9505 20.2263L19.051 15.6724L14.1942 11.1394L22.0813 15.1436L26.4742 17.6655ZM22.0813 26.4106L14.2654 30.7214L21.6746 23.5593L23.9505 21.3687L26.4515 23.9018L22.0813 26.4106ZM27.1933 23.4662L24.5587 20.7977L27.2084 18.114L31.8434 20.7975L27.1933 23.4662Z" fill="#292929"/>
</svg>

<svg viewBox="0 0 42 42" fill="none" xmlns="http://www.w3.org/2000/svg"><rect x=".35" y=".35" width="41.3" height="41.3" rx="7.65" stroke="#292929" stroke-width=".7"/><path d="M32.25 20.065l-4.922-2.847a.396.396 0 00-.081-.03l-4.759-2.736-10.535-5.41a.575.575 0 00-.119-.033.347.347 0 00-.132-.004.4.4 0 00-.159.052c-.133.057-.2.204-.2.351v23.185c0 .163.081.285.204.366.04.041.121.041.203.041.081 0 .122 0 .203-.04l10.535-5.858 4.63-2.685h.007c.081 0 .122-.04.203-.122a.287.287 0 00.095-.054l4.827-2.793c.244-.122.407-.407.407-.691 0-.285-.163-.529-.407-.692zm-20.093-9.721l11.18 10.448L12.157 31.6V10.344zm14.317 7.322l-1.419 1.441-1.104 1.12-4.9-4.555-4.857-4.533 7.887 4.005 4.393 2.522zm-4.393 8.745l-7.816 4.31 7.41-7.162 2.276-2.19 2.5 2.533-4.37 2.509zm5.112-2.945l-2.634-2.668 2.65-2.684 4.634 2.683-4.65 2.67z" fill="#292929"/></svg>
